courseProject/build/img/icons/left/folder.svg

<svg height="512" viewBox="0 0 64 64" width="512" xmlns="http://www.w3.org/2000/svg"><g id="Document-files-foder"><g fill="#78b9eb"><path d="m50 7v13l-9-9h-29v-4z"/><path d="m50 20 1 1h-8a2.006 2.006 0 0 1 -2-2v-8z"/><path d="m11 21v16h-1.31a2.006 2.006 0 0 0 -1.97 1.67l-3.72 22.33v-38a2.006 2.006 0 0 1 2-2z"/><path d="m57 23.12v13.91a2.1 2.1 0 0 0 -.36-.03h-5.64v-16h4a2.066 2.066 0 0 1 2 2.12z"/><path d="m58.61 39.33-3.33 20a2.006 2.006 0 0 1 -1.97 1.67h-49.31l3.72-22.33a2.006 2.006 0 0 1 1.97-1.67h46.95a2.1 2.1 0 0 1 .36.03 2 2 0 0 1 1.61 2.3z"/></g><path d="m58.93 37.06a2.95 2.95 0 0 0 -.93-.72v-13.22a3.068 3.068 0 0 0 -3-3.12h-3.59l-.41-.41v-12.59a1 1 0 0 0 -1-1h-1v-3a1 1 0 0 0 -1-1h-34a1 1 0 0 0 -1 1v3h-1a1 1 0 0 0 -1 1v3a1 1 0 0 0 -1 1v9h-4a3.009 3.009 0 0 0 -3 3v38a1 1 0 0 0 1 1h49.31a2.978 2.978 0 0 0 2.95-2.51l3.34-20a3.019 3.019 0 0 0 -.67-2.43zm-6.93-15.06h3a1.066 1.066 0 0 1 1 1.12v12.88h-4zm-37-18h32v2h-32zm-2 4h36v9.59l-7.29-7.3a1.033 1.033 0 0 0 -.71-.29h-28zm35.59 12h-5.59a1 1 0 0 1 -1-1v-5.59zm-36.59-8h28v7a3.009 3.009 0 0 0 3 3h7v14h-38zm-7 11a1 1 0 0 1 1-1h4v14h-.31a2.978 2.978 0 0 0 -2.95 2.51l-1.74 10.41zm49.29 36.17a.989.989 0 0 1 -.98.83h-48.13l3.53-21.17a.989.989 0 0 1 .98-.83h46.95a1 1 0 0 1 .76.35 1.014 1.014 0 0 1 .23.82z" fill="#006df0"/></g></svg>

<svg height="512" viewBox="0 0 64 64" width="512" xmlns="http://www.w3.org/2000/svg"><g fill="#78b9eb"><path d="M50 7v13l-9-9H12V7z"/><path d="M50 20l1 1h-8a2.006 2.006 0 01-2-2v-8zm-39 1v16H9.69a2.006 2.006 0 00-1.97 1.67L4 61V23a2.006 2.006 0 012-2zm46 2.12v13.91a2.1 2.1 0 00-.36-.03H51V21h4a2.066 2.066 0 012 2.12z"/><path d="M58.61 39.33l-3.33 20A2.006 2.006 0 0153.31 61H4l3.72-22.33A2.006 2.006 0 019.69 37h46.95a2.1 2.1 0 01.36.03 2 2 0 011.61 2.3z"/></g><path d="M58.93 37.06a2.95 2.95 0 00-.93-.72V23.12A3.068 3.068 0 0055 20h-3.59l-.41-.41V7a1 1 0 00-1-1h-1V3a1 1 0 00-1-1H14a1 1 0 00-1 1v3h-1a1 1 0 00-1 1v3a1 1 0 00-1 1v9H6a3.009 3.009 0 00-3 3v38a1 1 0 001 1h49.31a2.978 2.978 0 002.95-2.51l3.34-20a3.019 3.019 0 00-.67-2.43zM52 22h3a1.066 1.066 0 011 1.12V36h-4zM15 4h32v2H15zm-2 4h36v9.59l-7.29-7.3A1.033 1.033 0 0041 10H13zm35.59 12H43a1 1 0 01-1-1v-5.59zM12 12h28v7a3.009 3.009 0 003 3h7v14H12zM5 23a1 1 0 011-1h4v14h-.31a2.978 2.978 0 00-2.95 2.51L5 48.92zm49.29 36.17a.989.989 0 01-.98.83H5.18l3.53-21.17a.989.989 0 01.98-.83h46.95a1 1 0 01.76.35 1.014 1.014 0 01.23.82z" fill="#006df0"/></svg>
